Numix-Light/16/status/indicator-keyboard-Mt.svg

<?xml version="1.0" encoding="UTF-8" standalone="no"?>
<svg
   xmlns:dc="http://purl.org/dc/elements/1.1/"
   xmlns:cc="http://creativecommons.org/ns#"
   xmlns:rdf="http://www.w3.org/1999/02/22-rdf-syntax-ns#"
   xmlns:svg="http://www.w3.org/2000/svg"
   xmlns="http://www.w3.org/2000/svg"
   xmlns:sodipodi="http://sodipodi.sourceforge.net/DTD/sodipodi-0.dtd"
   xmlns:inkscape="http://www.inkscape.org/namespaces/inkscape"
   viewBox="0 0 16 16"
   id="svg2"
   version="1.1"
   inkscape:version="0.91 r13725"
   sodipodi:docname="indicator-keyboard-Mt.svg">
  <metadata
     id="metadata13">
    <rdf:RDF>
      <cc:Work
         rdf:about="">
        <dc:format>image/svg+xml</dc:format>
        <dc:type
           rdf:resource="http://purl.org/dc/dcmitype/StillImage" />
      </cc:Work>
    </rdf:RDF>
  </metadata>
  <defs
     id="defs11" />
  <sodipodi:namedview
     pagecolor="#ffffff"
     bordercolor="#666666"
     borderopacity="1"
     objecttolerance="10"
     gridtolerance="10"
     guidetolerance="10"
     inkscape:pageopacity="0"
     inkscape:pageshadow="2"
     inkscape:window-width="640"
     inkscape:window-height="480"
     id="namedview9"
     showgrid="false"
     inkscape:zoom="14.75"
     inkscape:cx="8"
     inkscape:cy="8"
     inkscape:window-x="65"
     inkscape:window-y="24"
     inkscape:window-maximized="0"
     inkscape:current-layer="svg2" />
  <path
     style="fill:#353535;fill-opacity:1"
     d="M 1.5996094 0 C 0.71320937 2.9605947e-16 0 0.71320937 0 1.5996094 L 0 14.400391 C 2.9605947e-16 15.286791 0.71320937 16 1.5996094 16 L 14.400391 16 C 15.286791 16 16 15.286791 16 14.400391 L 16 1.5996094 C 16 0.71320937 15.286791 0 14.400391 0 L 1.5996094 0 z M 3.1875 4.8320312 L 3.7285156 4.8320312 C 3.9085156 5.1320313 4.1006875 5.4809531 4.3046875 5.8769531 C 4.5086875 6.2669531 4.7102031 6.6736094 4.9082031 7.0996094 C 5.1122031 7.5196094 5.3061875 7.9375625 5.4921875 8.3515625 C 5.6841875 8.7595625 5.8520938 9.1270312 5.9960938 9.4570312 C 6.1400938 9.1270312 6.3061875 8.7595625 6.4921875 8.3515625 C 6.6841875 7.9375625 6.8781719 7.5196094 7.0761719 7.0996094 C 7.2801719 6.6736094 7.4835 6.2669531 7.6875 5.8769531 C 7.8915 5.4809531 8.0836719 5.1320312 8.2636719 4.8320312 L 8.7773438 4.8320312 C 8.8793437 5.7800312 8.9632969 6.7725469 9.0292969 7.8105469 C 9.1012969 8.8485469 9.16475 9.9343595 9.21875 11.068359 L 8.5976562 11.068359 C 8.5616563 10.10236 8.5187031 9.1826406 8.4707031 8.3066406 C 8.4287031 7.4246406 8.3690156 6.6074219 8.2910156 5.8574219 C 8.2430156 5.9414219 8.1684063 6.0850625 8.0664062 6.2890625 C 7.9644063 6.4930625 7.8468437 6.7319531 7.7148438 7.0019531 C 7.5828438 7.2719531 7.4447812 7.5610469 7.3007812 7.8730469 C 7.1567812 8.1790469 7.0169062 8.4794375 6.8789062 8.7734375 C 6.7409063 9.0614375 6.614 9.3282188 6.5 9.5742188 C 6.392 9.8202188 6.3080469 10.019922 6.2480469 10.169922 L 5.6992188 10.169922 C 5.6392188 10.019922 5.5515 9.8202187 5.4375 9.5742188 C 5.3295 9.3282188 5.2083125 9.0614375 5.0703125 8.7734375 C 4.9323125 8.4794375 4.7904844 8.1790469 4.6464844 7.8730469 C 4.5024844 7.5610469 4.3644219 7.2719531 4.2324219 7.0019531 C 4.1004219 6.7319531 3.9828594 6.4930625 3.8808594 6.2890625 C 3.7788594 6.0850625 3.70425 5.9414219 3.65625 5.8574219 C 3.57825 6.6074219 3.5147969 7.4246406 3.4667969 8.3066406 C 3.4247969 9.1826406 3.3856094 10.10236 3.3496094 11.068359 L 2.7480469 11.068359 C 2.8020469 9.9343595 2.8617344 8.8485469 2.9277344 7.8105469 C 2.9997344 6.7725469 3.0855 5.7800312 3.1875 4.8320312 z M 11.201172 4.9394531 L 11.201172 6.4160156 L 13.054688 6.4160156 L 13.054688 6.9101562 L 11.201172 6.9101562 L 11.201172 9.3867188 C 11.201172 9.6507187 11.221672 9.8652033 11.263672 10.033203 C 11.311672 10.195203 11.376937 10.322109 11.460938 10.412109 C 11.544938 10.502109 11.647578 10.561797 11.767578 10.591797 C 11.887578 10.621797 12.020062 10.636719 12.164062 10.636719 C 12.410063 10.636719 12.607812 10.610641 12.757812 10.556641 C 12.907812 10.496641 13.025375 10.442531 13.109375 10.394531 L 13.251953 10.880859 C 13.167953 10.934859 13.0225 10.996359 12.8125 11.068359 C 12.6025 11.134359 12.372953 11.167969 12.126953 11.167969 C 11.838953 11.167969 11.596437 11.132547 11.398438 11.060547 C 11.206437 10.982547 11.049688 10.86875 10.929688 10.71875 C 10.815688 10.56275 10.7355 10.370578 10.6875 10.142578 C 10.6395 9.9145783 10.615234 9.6440312 10.615234 9.3320312 L 10.615234 5.0488281 L 11.201172 4.9394531 z "
     id="path4" />
</svg>

<svg xmlns="http://www.w3.org/2000/svg" viewBox="0 0 16 16">
 <path d="m 1.6 0 c -0.886 0 -1.6 0.713 -1.6 1.6 l 0 12.801 c 0 0.886 0.713 1.6 1.6 1.6 l 12.801 0 c 0.886 0 1.6 -0.713 1.6 -1.6 l 0 -12.801 c 0 -0.886 -0.713 -1.6 -1.6 -1.6 l -12.801 0 z m 1.588 4.832 l 0.541 0 c 0.18 0.3 0.372 0.649 0.576 1.045 c 0.204 0.39 0.406 0.797 0.604 1.223 c 0.204 0.42 0.398 0.838 0.584 1.252 c 0.192 0.408 0.36 0.775 0.504 1.105 c 0.144 -0.33 0.31 -0.697 0.496 -1.105 c 0.192 -0.414 0.386 -0.832 0.584 -1.252 c 0.204 -0.426 0.407 -0.833 0.611 -1.223 c 0.204 -0.396 0.396 -0.745 0.576 -1.045 l 0.514 0 c 0.102 0.948 0.186 1.941 0.252 2.979 c 0.072 1.038 0.135 2.124 0.189 3.258 l -0.621 0 c -0.036 -0.966 -0.079 -1.886 -0.127 -2.762 c -0.042 -0.882 -0.102 -1.699 -0.18 -2.449 c -0.048 0.084 -0.123 0.228 -0.225 0.432 c -0.102 0.204 -0.22 0.443 -0.352 0.713 c -0.132 0.27 -0.27 0.559 -0.414 0.871 c -0.144 0.306 -0.284 0.606 -0.422 0.9 c -0.138 0.288 -0.265 0.555 -0.379 0.801 c -0.108 0.246 -0.192 0.446 -0.252 0.596 l -0.549 0 c -0.06 -0.15 -0.148 -0.35 -0.262 -0.596 c -0.108 -0.246 -0.229 -0.513 -0.367 -0.801 c -0.138 -0.294 -0.28 -0.594 -0.424 -0.9 c -0.144 -0.312 -0.282 -0.601 -0.414 -0.871 c -0.132 -0.27 -0.25 -0.509 -0.352 -0.713 c -0.102 -0.204 -0.177 -0.348 -0.225 -0.432 c -0.078 0.75 -0.141 1.567 -0.189 2.449 c -0.042 0.876 -0.081 1.796 -0.117 2.762 l -0.602 0 c 0.054 -1.134 0.114 -2.22 0.18 -3.258 c 0.072 -1.038 0.158 -2.031 0.26 -2.979 z m 8.01 0.107 l 0 1.477 l 1.854 0 l 0 0.494 l -1.854 0 l 0 2.477 c 0 0.264 0.021 0.478 0.063 0.646 c 0.048 0.162 0.113 0.289 0.197 0.379 c 0.084 0.09 0.187 0.15 0.307 0.18 c 0.12 0.03 0.252 0.045 0.396 0.045 c 0.246 0 0.444 -0.026 0.594 -0.08 c 0.15 -0.06 0.268 -0.114 0.352 -0.162 l 0.143 0.486 c -0.084 0.054 -0.229 0.116 -0.439 0.188 c -0.21 0.066 -0.44 0.1 -0.686 0.1 c -0.288 0 -0.531 -0.035 -0.729 -0.107 c -0.192 -0.078 -0.349 -0.192 -0.469 -0.342 c -0.114 -0.156 -0.194 -0.348 -0.242 -0.576 c -0.048 -0.228 -0.072 -0.499 -0.072 -0.811 l 0 -4.283 l 0.586 -0.109 z" style="fill:#353535;fill-opacity:1"/>
</svg>
